localPackages/DesignSystem/Sources/DesignSystem/Resources/Assets.xcassets/IconSet/ic-arrows-switch.imageset/ic-arrows-switch.svg

<svg width="24" height="24" viewBox="0 0 24 24" fill="none" xmlns="http://www.w3.org/2000/svg">
<g id="ic-arrows-switch">
<path id="Icon" fill-rule="evenodd" clip-rule="evenodd" d="M18.6008 1.71633C18.306 1.42529 17.8312 1.42829 17.5401 1.72303C17.2491 2.01777 17.2521 2.49263 17.5468 2.78367L20.0445 5.25H5.14262C3.89998 5.25 2.89262 6.25736 2.89262 7.5V9.75H4.39262V7.5C4.39262 7.08579 4.72841 6.75 5.14262 6.75H20.0445L17.5468 9.21633C17.2521 9.50737 17.2491 9.98223 17.5401 10.277C17.8312 10.5717 18.306 10.5747 18.6008 10.2837L22.1823 6.74714C22.5986 6.33604 22.5986 5.66396 22.1823 5.25286L18.6008 1.71633ZM19.6024 12.75V16.5C19.6024 16.9142 19.2666 17.25 18.8524 17.25L3.95048 17.25L6.44817 14.7837C6.74291 14.4926 6.74591 14.0178 6.45487 13.723C6.16383 13.4283 5.68897 13.4253 5.39423 13.7163L1.81273 17.2529C1.39641 17.6639 1.39641 18.336 1.81273 18.7471L5.39423 22.2837C5.68897 22.5747 6.16383 22.5717 6.45487 22.277C6.74591 21.9822 6.74291 21.5074 6.44817 21.2163L3.95048 18.75L18.8524 18.75C20.095 18.75 21.1024 17.7426 21.1024 16.5V12.75H19.6024Z" fill="#0F0F0F"/>
</g>
</svg>

<svg xmlns="http://www.w3.org/2000/svg" width="24" height="24" viewBox="0 0 24 24">
  <g class="ic-arrows-switch">
    <path fill-rule="evenodd" d="M18.6 1.716a.75.75 0 0 0-1.054 1.068l2.498 2.466H5.142a2.25 2.25 0 0 0-2.25 2.25v2.25h1.5V7.5a.75.75 0 0 1 .75-.75h14.902l-2.498 2.466a.75.75 0 0 0 1.054 1.068l3.582-3.537a1.05 1.05 0 0 0 0-1.494L18.6 1.716Zm1.002 11.034v3.75a.75.75 0 0 1-.75.75H3.95l2.498-2.466a.75.75 0 0 0-1.054-1.068l-3.582 3.537a1.05 1.05 0 0 0 0 1.494l3.582 3.537a.75.75 0 0 0 1.054-1.068L3.95 18.75h14.902a2.25 2.25 0 0 0 2.25-2.25v-3.75h-1.5Z" class="Icon"/>
  </g>
</svg>
